images/select.svg

<svg width="12" height="8" viewBox="0 0 12 8" fill="none" xmlns="http://www.w3.org/2000/svg">
<path d="M6.6 6.725L11.7 1.425C12 1.125 12 0.525 11.7 0.225C11.4 -0.075 10.8 -0.075 10.5 0.225L6 4.925L1.5 0.225C1.2 -0.075 0.6 -0.075 0.3 0.225C0.1 0.325 0 0.625 0 0.825C0 1.025 0.1 1.225 0.3 1.425L5.4 6.725C5.7 7.125 6.3 7.125 6.6 6.725Z" fill="#E5E5E5"/>
</svg>

<svg width="12" height="8" fill="none" xmlns="http://www.w3.org/2000/svg"><path d="m6.6 6.725 5.1-5.3c.3-.3.3-.9 0-1.2-.3-.3-.9-.3-1.2 0L6 4.925 1.5.225c-.3-.3-.9-.3-1.2 0-.2.1-.3.4-.3.6 0 .2.1.4.3.6l5.1 5.3c.3.4.9.4 1.2 0Z" fill="#E5E5E5"/></svg>
